app/img/icons/f4.svg

<svg width="32" height="32" viewBox="0 0 32 32" fill="none" xmlns="http://www.w3.org/2000/svg">
<path d="M31.3771 8.48532L16.5038 1.04872C16.1867 0.890011 15.8133 0.890011 15.4961 1.04872L0.622869 8.48532C0.241131 8.67625 0 9.06628 0 9.49316V29.9439C0 30.5661 0.504458 31.0706 1.12679 31.0706H4.84515C5.46737 31.0706 5.97193 30.5662 5.97193 29.9439V12.4791H26.0283V29.9439C26.0283 30.5661 26.5327 31.0706 27.1551 31.0706H30.8734C31.4957 31.0706 32.0002 30.5662 32.0002 29.9439V9.49316C32 9.06628 31.7589 8.67625 31.3771 8.48532ZM29.7465 28.8171H28.2818V11.3523C28.2818 10.7301 27.7773 10.2255 27.155 10.2255H4.84504C4.22282 10.2255 3.71825 10.73 3.71825 11.3523V28.8171H2.25347V10.1895L16 3.3163L29.7465 10.1895V28.8171Z" fill="#FA4616"/>
</svg>

<svg width="32" height="32" fill="none" xmlns="http://www.w3.org/2000/svg"><path d="M31.377 8.485L16.504 1.05a1.126 1.126 0 00-1.008 0L.623 8.485A1.125 1.125 0 000 9.493v20.45c0 .623.504 1.128 1.127 1.128h3.718c.622 0 1.127-.505 1.127-1.127V12.479h20.056v17.465c0 .622.505 1.127 1.127 1.127h3.718c.623 0 1.127-.505 1.127-1.127V9.494c0-.428-.241-.818-.623-1.009zm-1.63 20.332h-1.465V11.352c0-.622-.505-1.127-1.127-1.127H4.845c-.622 0-1.127.505-1.127 1.127v17.465H2.253V10.19L16 3.316l13.747 6.874v18.627z" fill="#FA4616"/></svg>
